dist/assets/img/Forestweb-tree.svg

<svg width="15" height="20" viewBox="0 0 15 20" fill="none" xmlns="http://www.w3.org/2000/svg">
<path d="M6.75276 10.5859C7.12343 10.1521 7.79399 10.1521 8.16466 10.5859L12.6093 15.7875C13.1242 16.3901 12.696 17.3193 11.9033 17.3193H3.01412C2.22146 17.3193 1.79323 16.3901 2.30816 15.7875L6.75276 10.5859Z" fill="#1D634A"/>
<path d="M6.75276 6.1504C7.12343 5.7166 7.79399 5.7166 8.16466 6.1504L12.6093 11.3519C13.1242 11.9546 12.696 12.8837 11.9033 12.8837L3.01412 12.8837C2.22146 12.8837 1.79323 11.9546 2.30816 11.3519L6.75276 6.1504Z" fill="#278362"/>
<path d="M6.753 1.71583C7.12367 1.28203 7.79423 1.28203 8.16491 1.71583L12.6095 6.91736C13.1244 7.51998 12.6962 8.44915 11.9035 8.44915H3.01436C2.2217 8.44915 1.79348 7.51998 2.30841 6.91736L6.753 1.71583Z" fill="#3EA47F"/>
</svg>

<svg width="15" height="20" fill="none" xmlns="http://www.w3.org/2000/svg"><path d="M6.753 10.586a.929.929 0 011.412 0l4.444 5.201a.929.929 0 01-.706 1.532H3.014a.929.929 0 01-.706-1.531l4.445-5.202z" fill="#1D634A"/><path d="M6.753 6.15a.929.929 0 011.412 0l4.444 5.202a.929.929 0 01-.706 1.532H3.014a.929.929 0 01-.706-1.532L6.753 6.15z" fill="#278362"/><path d="M6.753 1.716a.929.929 0 011.412 0l4.445 5.201a.929.929 0 01-.707 1.532H3.014a.929.929 0 01-.706-1.532l4.445-5.201z" fill="#3EA47F"/></svg>
